%
(Header)
(Generated by gcodetools from Inkscape.)
(Using default header. To add your own header create file "header" in the output dir.)
M3
(Header end.)
G21 (All units in mm)

(Start cutting path id: path14)
(Change tool to Default tool)

G00 Z6.000000
G00 X65.303326 Y150.064897

G01 Z2.000000 F4500.0(Penetrate)
G03 X65.233924 Y149.712339 Z2.000000 I0.404085 J-0.262655 F4500.000000
G03 X65.494874 Y149.067718 Z2.000000 I1.745302 J0.331392
G02 X65.865077 Y148.377201 Z2.000000 I-4.132750 J-2.660161
G02 X66.148393 Y147.563499 Z2.000000 I-5.112319 J-2.236187
G03 X66.317854 Y147.038991 Z2.000000 I5.377888 J1.447893
G03 X66.379378 Y146.943783 Z2.000000 I0.252261 J0.095530
G03 X66.482697 Y146.884547 Z2.000000 I0.160877 J0.160877
G03 X66.723038 Y146.853643 Z2.000000 I0.240341 J0.919119
G03 X66.959147 Y146.905509 Z2.000000 I0.000000 J0.563352
G03 X67.168107 Y147.056459 Z2.000000 I-0.281460 J0.609729
G03 X67.415293 Y147.992643 Z2.000000 I-0.772662 J0.704735
G03 X66.604729 Y149.524055 Z2.000000 I-3.242021 J-0.735757
G03 X65.662499 Y150.175611 Z2.000000 I-1.986358 J-1.865450
G03 X65.303326 Y150.064897 Z2.000000 I-0.112818 J-0.271964
G01 X65.303326 Y150.064897 Z2.000000
G00 Z6.000000

(End cutting path id: path14)


(Start cutting path id: path13)
(Change tool to Default tool)

G00 Z6.000000
G00 X69.004719 Y151.862073

G01 Z2.000000 F4500.0(Penetrate)
G03 X68.893553 Y151.751841 Z2.000000 I0.254992 J-0.368321 F4500.000000
G03 X68.796269 Y151.580384 Z2.000000 I0.824438 J-0.581111
G03 X68.785026 Y151.225915 Z2.000000 I0.460875 J-0.192031
G03 X69.061057 Y150.814190 Z2.000000 I0.914294 J0.314574
G02 X69.487739 Y150.324794 Z2.000000 I-1.460933 J-1.704422
G02 X69.810350 Y149.659265 Z2.000000 I-2.585605 J-1.664309
G03 X70.282233 Y148.997258 Z2.000000 I1.351720 J0.464331
G03 X70.869500 Y148.831100 Z2.000000 I0.497243 J0.636555
G03 X71.283726 Y149.033953 Z2.000000 I-0.073027 J0.673472
G03 X71.404709 Y149.383210 Z2.000000 I-0.315732 J0.304953
G03 X71.192762 Y150.161918 Z2.000000 I-2.522379 J-0.268338
G03 X70.739923 Y150.847993 Z2.000000 I-2.380747 J-1.078912
G03 X69.658196 Y151.808847 Z2.000000 I-5.189519 J-4.753017
G03 X69.213169 Y151.952214 Z2.000000 I-0.445027 J-0.619025
G03 X69.138538 Y151.936647 Z2.000000 I-0.000000 J-0.186682
G03 X69.004719 Y151.862073 Z2.000000 I0.315748 J-0.723947
G01 X69.004719 Y151.862073 Z2.000000
G00 Z6.000000

(End cutting path id: path13)


(Start cutting path id: path12)
(Change tool to Default tool)

G00 Z6.000000
G00 X72.734281 Y153.445165

G01 Z2.000000 F4500.0(Penetrate)
G03 X72.604074 Y153.304207 Z2.000000 I0.097262 J-0.220461 F4500.000000
G03 X72.548367 Y152.909956 Z2.000000 I0.965658 J-0.337508
G03 X72.768536 Y152.150321 Z2.000000 I1.739848 J0.092545
G03 X73.562447 Y151.107147 Z2.000000 I4.112495 J2.306137
G03 X74.332167 Y150.516413 Z2.000000 I2.533788 J2.504664
G03 X74.694837 Y150.459262 Z2.000000 I0.256864 J0.450718
G03 X75.073494 Y150.657650 Z2.000000 I-0.166990 J0.779288
G03 X75.308919 Y151.022640 Z2.000000 I-0.615893 J0.655684
G03 X75.308203 Y151.335697 Z2.000000 I-0.476681 J0.155440
G03 X74.976526 Y152.019819 Z2.000000 I-2.749170 J-0.910394
G03 X74.095535 Y153.027356 Z2.000000 I-4.054853 J-2.656628
G03 X73.342730 Y153.439532 Z2.000000 I-1.329822 J-1.535255
G03 X72.973145 Y153.494157 Z2.000000 I-0.381966 J-1.306725
G03 X72.734281 Y153.445165 Z2.000000 I-0.005284 J-0.581033
G01 X72.734281 Y153.445165 Z2.000000
G00 Z6.000000

(End cutting path id: path12)


(Start cutting path id: path9)
(Change tool to Default tool)

G00 Z6.000000
G00 X83.168042 Y154.200092

G01 Z2.000000 F4500.0(Penetrate)
G03 X81.536853 Y153.435519 Z2.000000 I2.774862 J-8.042396 F4500.000000
G03 X80.475095 Y152.571930 Z2.000000 I2.568015 J-4.241794
G03 X80.068575 Y151.975637 Z2.000000 I1.735852 J-1.620129
G03 X80.058195 Y151.704327 Z2.000000 I0.309009 J-0.147675
G03 X80.229236 Y151.555077 Z2.000000 I0.225166 J0.085408
G03 X80.700446 Y151.546582 Z2.000000 I0.255664 J1.108425
G03 X82.317760 Y152.043964 Z2.000000 I-1.792695 J8.707375
G03 X83.889166 Y152.876154 Z2.000000 I-3.657970 J8.806986
G03 X84.231629 Y153.466802 Z2.000000 I-0.423714 J0.640279
G03 X83.973672 Y154.194458 Z2.000000 I-0.976796 J0.063274
G03 X83.741218 Y154.293899 Z2.000000 I-0.234041 J-0.225682
G03 X83.168042 Y154.200092 Z2.000000 I-0.008518 J-1.745954
G01 X83.168042 Y154.200092 Z2.000000
G00 Z6.000000

(End cutting path id: path9)


(Start cutting path id: path10)
(Change tool to Default tool)

G00 Z6.000000
G00 X83.027197 Y150.617008

G01 Z2.000000 F4500.0(Penetrate)
G03 X82.885810 Y150.587049 Z2.000000 I0.152855 J-1.069988 F4500.000000
G03 X82.452552 Y150.453628 Z2.000000 I2.680927 J-9.475976
G03 X80.943419 Y149.469992 Z2.000000 I1.090481 J-3.322560
G03 X80.717348 Y148.521242 Z2.000000 I0.757911 J-0.681907
G03 X80.962333 Y148.058195 Z2.000000 I1.140426 J0.307038
G03 X81.286359 Y147.867723 Z2.000000 I0.440872 J0.379153
G03 X81.676798 Y147.917420 Z2.000000 I0.128210 J0.551302
G03 X82.328609 Y148.408566 Z2.000000 I-1.157678 J2.214468
G02 X82.613741 Y148.684411 Z2.000000 I4.111791 J-3.964941
G02 X82.717339 Y148.757861 Z2.000000 I0.363227 J-0.402536
G02 X82.839996 Y148.792366 Z2.000000 I0.151320 J-0.302640
G02 X83.506069 Y148.825466 Z2.000000 I0.803526 J-9.451193
G03 X84.172906 Y148.874577 Z2.000000 I0.000000 J4.551766
G03 X84.418741 Y148.955043 Z2.000000 I-0.112456 J0.759333
G03 X84.755035 Y149.355662 Z2.000000 I-0.324439 J0.613804
G03 X84.722965 Y149.895884 Z2.000000 I-0.709566 J0.228940
G03 X84.118031 Y150.487190 Z2.000000 I-1.057726 J-0.477014
G03 X83.027197 Y150.617008 Z2.000000 I-0.769095 J-1.814605
G01 X83.027197 Y150.617008 Z2.000000
G00 Z6.000000

(End cutting path id: path10)


(Start cutting path id: path11)
(Change tool to Default tool)

G00 Z6.000000
G00 X83.731420 Y147.000121

G01 Z2.000000 F4500.0(Penetrate)
G03 X83.417549 Y146.789068 Z2.000000 I0.481885 J-1.055558 F4500.000000
G03 X82.452552 Y145.788858 Z2.000000 I10.009979 J-10.623196
G03 X81.944607 Y144.836139 Z2.000000 I1.699454 J-1.517833
G03 X82.080722 Y144.346611 Z2.000000 I0.493739 J-0.126402
G03 X82.980619 Y144.111067 Z2.000000 I0.651231 J0.651231
G03 X84.075080 Y144.909989 Z2.000000 I-0.523230 J1.865910
G02 X84.369606 Y145.187015 Z2.000000 I0.756438 J-0.509141
G02 X84.886345 Y145.388860 Z2.000000 I0.888440 J-1.512111
G03 X85.690015 Y145.770302 Z2.000000 I-0.386184 J1.851022
G03 X85.900425 Y146.211392 Z2.000000 I-0.357131 J0.441090
G03 X85.786172 Y146.543489 Z2.000000 I-0.539776 J0.000000
G03 X85.421554 Y146.825474 Z2.000000 I-0.734936 J-0.573576
G03 X84.741474 Y147.040154 Z2.000000 I-1.448323 J-3.403559
G03 X84.103249 Y147.107163 Z2.000000 I-0.638225 J-3.005884
G03 X83.962785 Y147.086691 Z2.000000 I-0.000000 J-0.492114
G03 X83.731420 Y147.000121 Z2.000000 I0.514431 J-1.727321
G01 X83.731420 Y147.000121 Z2.000000
G00 Z6.000000

(End cutting path id: path11)


(Start cutting path id: path5)
(Change tool to Default tool)

G00 Z6.000000
G00 X83.759589 Y161.270486

G01 Z2.000000 F4500.0(Penetrate)
G03 X83.617254 Y161.247323 Z2.000000 I0.524981 J-3.674868 F4500.000000
G02 X83.280717 Y161.185979 Z2.000000 I-68.858728 J376.810707
G03 X82.154892 Y160.709498 Z2.000000 I0.467140 J-2.672042
G03 X81.089177 Y159.597253 Z2.000000 I2.539010 J-3.499480
G03 X80.534172 Y158.082456 Z2.000000 I2.949413 J-1.939704
G03 X80.830023 Y157.433882 Z2.000000 I0.678491 J-0.082266
G03 X81.252653 Y157.302104 Z2.000000 I0.415937 J0.590362
G03 X81.680724 Y157.433882 Z2.000000 I-0.007273 J0.784794
G03 X81.842348 Y157.584702 Z2.000000 I-0.378204 J0.567306
G03 X82.097624 Y157.980358 Z2.000000 I-2.218035 J1.711247
G02 X82.810595 Y158.958959 Z2.000000 I3.891435 J-2.086130
G02 X83.596209 Y159.524014 Z2.000000 I1.944690 J-1.875104
G02 X84.489055 Y159.716037 Z2.000000 I0.848741 J-1.774640
G02 X85.731412 Y159.473310 Z2.000000 I-0.083623 J-3.728770
G03 X86.521387 Y159.306887 Z2.000000 I0.937687 J2.492876
G03 X86.976477 Y159.405705 Z2.000000 I0.048536 J0.873811
G03 X87.279012 Y159.861088 Z2.000000 I-0.272963 J0.509530
G03 X87.077885 Y160.481757 Z2.000000 I-0.820120 J0.077162
G03 X86.587722 Y160.833742 Z2.000000 I-0.992609 J-0.864987
G03 X85.449723 Y161.157810 Z2.000000 I-1.982675 J-4.802238
G03 X84.259171 Y161.298621 Z2.000000 I-1.931325 J-11.225825
G03 X83.759589 Y161.270486 Z2.000000 I-0.134422 J-2.062603
G01 X83.759589 Y161.270486 Z2.000000
G00 Z6.000000

(End cutting path id: path5)


(Start cutting path id: path7)
(Change tool to Default tool)

G00 Z6.000000
G00 X96.734184 Y159.078945

G01 Z2.000000 F4500.0(Penetrate)
G03 X94.650925 Y158.264606 Z2.000000 I1.025682 J-5.695811 F4500.000000
G03 X93.224339 Y156.847969 Z2.000000 I2.533434 J-3.977844
G03 X92.903638 Y156.004961 Z2.000000 I1.838591 J-1.181951
G03 X92.993354 Y155.360651 Z2.000000 I1.108664 J-0.174027
G03 X93.472701 Y154.839694 Z2.000000 I1.060750 J0.495017
G03 X94.784896 Y154.340937 Z2.000000 I2.236072 J3.907423
G02 X96.465369 Y153.868855 Z2.000000 I-2.671053 J-12.735200
G02 X96.655311 Y153.681784 Z2.000000 I-0.105374 J-0.296955
G02 X96.888965 Y152.758322 Z2.000000 I-3.646314 J-1.413877
G02 X97.004606 Y150.921232 Z2.000000 I-14.534327 J-1.837090
G02 X96.953983 Y150.330378 Z2.000000 I-3.473463 J-0.000000
G02 X96.796156 Y149.698702 Z2.000000 I-4.344665 J0.749980
G02 X96.165879 Y148.522327 Z2.000000 I-3.670757 J1.209681
G02 X95.410246 Y147.924061 Z2.000000 I-1.623182 J1.273813
G02 X93.767007 Y147.773433 Z2.000000 I-1.037000 J2.274329
G02 X91.827162 Y148.819832 Z2.000000 I1.081587 J4.326349
G03 X91.289192 Y149.268101 Z2.000000 I-5.983487 J-6.633866
G03 X91.111672 Y149.360675 Z2.000000 I-0.350846 J-0.456291
G03 X90.737064 Y149.323544 Z2.000000 I-0.146413 J-0.431104
G03 X90.373647 Y148.932508 Z2.000000 I0.457145 J-0.789250
G03 X90.271318 Y148.615976 Z2.000000 I1.121369 J-0.537323
G03 X90.249703 Y148.233919 Z2.000000 I1.547296 J-0.279177
G03 X90.546327 Y147.456416 Z2.000000 I1.433268 J0.101470
G03 X91.393361 Y146.757869 Z2.000000 I1.964256 J1.518971
G03 X92.729065 Y146.298228 Z2.000000 I2.272013 J4.431828
G03 X94.458137 Y146.166322 Z2.000000 I1.445760 J7.552944
G03 X96.423763 Y146.666125 Z2.000000 I-0.166825 J4.771201
G03 X97.404604 Y147.631105 Z2.000000 I-0.994285 J1.991599
G02 X98.187336 Y148.737332 Z2.000000 I4.431606 J-2.305633
G02 X98.767979 Y149.084620 Z2.000000 I0.894355 J-0.836262
G02 X98.997231 Y149.103345 Z2.000000 I0.163454 J-0.588433
G02 X99.365159 Y149.017014 Z2.000000 I-0.166583 J-1.537147
G03 X99.742055 Y148.929183 Z2.000000 I0.529774 J1.420758
G03 X100.829942 Y148.864902 Z2.000000 I1.309193 J12.918949
G03 X101.926459 Y148.866024 Z2.000000 I0.519800 J27.809300
G03 X102.655287 Y148.904339 Z2.000000 I-0.238088 J11.480156
G03 X103.641198 Y149.135495 Z2.000000 I-0.286767 J3.441201
G03 X104.317252 Y149.563491 Z2.000000 I-0.793402 J2.001178
G02 X104.681269 Y149.889061 Z2.000000 I15.048618 J-16.459426
G02 X105.213023 Y150.346586 Z2.000000 I28.000003 J-32.004950
G03 X105.796639 Y151.086622 Z2.000000 I-1.465626 J1.755986
G03 X106.136963 Y152.211368 Z2.000000 I-3.177496 J1.575304
G03 X106.221596 Y153.093929 Z2.000000 I-12.893263 J1.681730
G03 X106.210202 Y153.343757 Z2.000000 I-1.167834 J0.071914
G03 X106.015524 Y153.775752 Z2.000000 I-0.851468 J-0.123850
G03 X105.629923 Y154.025445 Z2.000000 I-0.605430 J-0.512378
G03 X105.009328 Y154.113976 Z2.000000 I-0.600263 J-1.988371
G03 X104.531336 Y154.014177 Z2.000000 I0.012270 J-1.253356
G03 X104.271681 Y153.757772 Z2.000000 I0.189276 J-0.451351
G03 X104.091901 Y153.005731 Z2.000000 I2.036556 J-0.884360
G02 X103.910593 Y151.747032 Z2.000000 I-8.250000 J0.545956
G02 X103.697536 Y151.264893 Z2.000000 I-1.320327 J0.295306
G02 X103.365566 Y150.957361 Z2.000000 I-0.911711 J0.651222
G02 X102.660921 Y150.639543 Z2.000000 I-1.668630 J2.759519
G02 X101.683826 Y150.483830 Z2.000000 I-1.015207 J3.226907
G02 X100.604591 Y150.617008 Z2.000000 I-0.045835 J4.068048
G02 X99.389306 Y151.197227 Z2.000000 I0.929998 J3.510742
G02 X98.891922 Y151.867707 Z2.000000 I0.832632 J1.137400
G02 X98.826503 Y152.137305 Z2.000000 I2.194604 J0.675263
G02 X98.739810 Y152.707140 Z2.000000 I10.655314 J1.912587
G02 X98.825519 Y154.059889 Z2.000000 I3.892293 J0.432477
G02 X99.466567 Y155.715579 Z2.000000 I6.546124 J-1.582577
G03 X100.133590 Y157.102450 Z2.000000 I-11.527629 J6.398110
G03 X100.255297 Y157.636698 Z2.000000 I-1.534374 J0.630532
G03 X100.222029 Y158.050095 Z2.000000 I-1.695128 J0.071625
G03 X100.108818 Y158.329653 Z2.000000 I-0.816334 J-0.167884
G03 X99.408525 Y158.879866 Z2.000000 I-1.147121 J-0.739256
G03 X97.731363 Y159.157818 Z2.000000 I-1.651429 J-4.765743
G03 X97.143017 Y159.132348 Z2.000000 I0.000000 J-6.807957
G03 X96.734184 Y159.078945 Z2.000000 I0.411023 J-4.738293
G01 X96.734184 Y159.078945 Z2.000000
G00 Z6.000000

(End cutting path id: path7)


(Start cutting path id: path3)
(Change tool to Default tool)

G00 Z6.000000
G00 X105.934147 Y168.092993

G01 Z2.000000 F4500.0(Penetrate)
G03 X105.606339 Y167.934010 Z2.000000 I0.875942 J-2.223546 F4500.000000
G03 X104.976404 Y167.540883 Z2.000000 I6.220233 J-10.668379
G02 X104.348751 Y167.121800 Z2.000000 I-68.811177 J102.377605
G02 X103.866550 Y166.802858 Z2.000000 I-123.794198 J186.637956
G03 X103.042218 Y166.131859 Z2.000000 I2.574148 J-4.004231
G03 X102.627118 Y165.546525 Z2.000000 I1.619293 J-1.588204
G03 X102.449982 Y164.825973 Z2.000000 I1.590029 J-0.772931
G03 X102.587682 Y164.239488 Z2.000000 I1.170105 J-0.034682
G03 X102.976871 Y163.798544 Z2.000000 I1.110447 J0.587884
G03 X103.449650 Y163.625406 Z2.000000 I0.561307 J0.800668
G03 X103.737164 Y163.663833 Z2.000000 I0.052808 J0.699706
G03 X103.951056 Y163.805687 Z2.000000 I-0.177288 J0.499505
G03 X104.112551 Y164.029874 Z2.000000 I-0.715447 J0.685636
G03 X104.379224 Y164.611317 Z2.000000 I-5.208012 J2.740474
G02 X105.030734 Y165.712867 Z2.000000 I3.572253 J-1.369364
G02 X105.844006 Y166.335254 Z2.000000 I1.828796 J-1.547139
G02 X106.622260 Y166.437301 Z2.000000 I0.545494 J-1.141496
G02 X107.500338 Y166.025396 Z2.000000 I-0.355629 J-1.899984
G03 X107.838319 Y165.763185 Z2.000000 I3.362103 J3.984715
G03 X108.007378 Y165.653567 Z2.000000 I1.342866 J1.885855
G03 X108.518958 Y165.527650 Z2.000000 I0.511756 J0.976989
G03 X109.043993 Y165.659201 Z2.000000 I0.000177 J1.112807
G03 X109.418193 Y166.138147 Z2.000000 I-0.355911 J0.663725
G03 X109.342584 Y166.819759 Z2.000000 I-0.947774 J0.239866
G03 X108.955274 Y167.306048 Z2.000000 I-1.423190 J-0.736133
G03 X108.131321 Y167.839473 Z2.000000 I-2.477123 J-2.923204
G03 X106.826374 Y168.217970 Z2.000000 I-1.783115 J-3.708880
G03 X105.934147 Y168.092993 Z2.000000 I-0.207008 J-1.769502
G01 X105.934147 Y168.092993 Z2.000000
G00 Z6.000000

(End cutting path id: path3)


(Start cutting path id: path4)
(Change tool to Default tool)

G00 Z6.000000
G00 X112.182009 Y162.684565

G01 Z2.000000 F4500.0(Penetrate)
G03 X110.488082 Y162.261432 Z2.000000 I2.024493 J-11.706853 F4500.000000
G03 X108.987656 Y161.636682 Z2.000000 I3.340352 J-10.136457
G03 X108.645830 Y161.353308 Z2.000000 I0.462534 J-0.905795
G03 X108.548221 Y161.067670 Z2.000000 I0.369132 J-0.285639
G03 X108.638521 Y160.701939 Z2.000000 I0.785787 J0.000000
G03 X108.942585 Y160.324011 Z2.000000 I1.116934 J0.587354
G03 X109.326685 Y160.212525 Z2.000000 I0.321564 J0.390470
G03 X110.255256 Y160.487390 Z2.000000 I-0.366989 J2.945713
G02 X110.902286 Y160.747774 Z2.000000 I2.107434 J-4.302678
G02 X111.505955 Y160.887389 Z2.000000 I1.146396 J-3.581935
G03 X112.113030 Y161.016304 Z2.000000 I-0.607858 J4.356319
G03 X112.542571 Y161.180345 Z2.000000 I-0.748384 J2.604028
G03 X112.919273 Y161.531738 Z2.000000 I-0.417382 J0.825058
G03 X113.077780 Y162.076116 Z2.000000 I-0.967065 J0.576847
G03 X113.041436 Y162.462396 Z2.000000 I-1.759313 J0.029322
G03 X112.970738 Y162.588790 Z2.000000 I-0.235597 J-0.048810
G03 X112.737812 Y162.701157 Z2.000000 I-0.277376 J-0.277376
G03 X112.182009 Y162.684565 Z2.000000 I-0.220448 J-1.932910
G01 X112.182009 Y162.684565 Z2.000000
G00 Z6.000000

(End cutting path id: path4)


(Start cutting path id: path6)
(Change tool to Default tool)

G00 Z6.000000
G00 X112.407360 Y159.293029

G01 Z2.000000 F4500.0(Penetrate)
G03 X110.550253 Y158.720151 Z2.000000 I7.371928 J-27.194223 F4500.000000
G03 X110.317228 Y158.571905 Z2.000000 I0.195994 J-0.565348
G03 X110.098983 Y158.187698 Z2.000000 I0.724150 J-0.665435
G03 X110.125679 Y157.924021 Z2.000000 I0.333255 J-0.099449
G03 X110.196936 Y157.842043 Z2.000000 I0.194890 J0.097445
G03 X110.356664 Y157.760641 Z2.000000 I0.386347 J0.560684
G03 X110.789216 Y157.716704 Z2.000000 I0.309751 J0.898278
G03 X111.629898 Y157.929654 Z2.000000 I-0.474072 J3.637428
G02 X112.247370 Y158.108112 Z2.000000 I1.354110 J-3.527812
G02 X112.886231 Y158.183174 Z2.000000 I0.792079 J-3.985212
G03 X114.161566 Y158.307640 Z2.000000 I-0.348014 J10.162014
G03 X114.367916 Y158.419793 Z2.000000 I-0.056617 J0.350075
G03 X114.516042 Y158.877239 Z2.000000 I-0.447206 J0.397517
G03 X114.266507 Y159.416972 Z2.000000 I-0.905674 J-0.091170
G03 X114.060316 Y159.560858 Z2.000000 I-0.441541 J-0.413054
G03 X113.810171 Y159.608521 Z2.000000 I-0.236046 J-0.558589
G03 X113.537578 Y159.573308 Z2.000000 I0.055700 J-1.503904
G03 X112.407360 Y159.293029 Z2.000000 I5.482259 J-24.526027
G01 X112.407360 Y159.293029 Z2.000000
G00 Z6.000000

(End cutting path id: path6)


(Start cutting path id: path8)
(Change tool to Default tool)

G00 Z6.000000
G00 X111.184830 Y154.932483

G01 Z2.000000 F4500.0(Penetrate)
G03 X110.808450 Y154.699981 Z2.000000 I0.238362 J-0.806765 F4500.000000
G03 X110.689057 Y154.397274 Z2.000000 I0.324045 J-0.302707
G03 X110.772385 Y154.056043 Z2.000000 I0.740340 J-0.000000
G03 X111.032718 Y153.732488 Z2.000000 I0.934358 J0.485276
G03 X111.238161 Y153.632997 Z2.000000 I0.297649 J0.352770
G03 X111.590462 Y153.619813 Z2.000000 I0.216058 J1.059734
G02 X112.494443 Y153.613391 Z2.000000 I0.428028 J-3.376664
G02 X113.179188 Y153.400095 Z2.000000 I-0.311508 J-2.205803
G03 X113.895195 Y153.169823 Z2.000000 I1.107189 J2.214379
G03 X114.266507 Y153.225448 Z2.000000 I0.098039 J0.612682
G03 X114.886197 Y153.671698 Z2.000000 I-0.858218 J1.845169
G03 X115.027068 Y154.025445 Z2.000000 I-0.373721 J0.353747
G03 X114.823338 Y154.371811 Z2.000000 I-0.396299 J-0.000000
G03 X113.579186 Y154.831075 Z2.000000 I-2.103409 J-3.783319
G03 X111.974204 Y155.025501 Z2.000000 I-2.065064 J-10.325321
G03 X111.184830 Y154.932483 Z2.000000 I-0.108319 J-2.476710
G01 X111.184830 Y154.932483 Z2.000000
G00 Z6.000000

(End cutting path id: path8)


(Start cutting path id: path2)
(Change tool to Default tool)

G00 Z6.000000
G00 X106.041189 Y192.949231

G01 Z2.000000 F4500.0(Penetrate)
G02 X106.367690 Y192.402977 Z2.000000 I-1.036890 J-0.990462 F4500.000000
G02 X107.049635 Y189.867553 Z2.000000 I-23.914769 J-7.791708
G02 X107.341137 Y188.088901 Z2.000000 I-19.482558 J-4.106189
G02 X107.438366 Y186.566158 Z2.000000 I-14.195036 J-1.670850
G02 X107.402185 Y185.671460 Z2.000000 I-8.276536 J-0.113377
G02 X107.342592 Y185.535176 Z2.000000 I-0.237028 J0.022474
G02 X107.028505 Y185.433243 Z2.000000 I-0.245479 J0.221530
G02 X105.455276 Y185.929541 Z2.000000 I1.774890 J8.367940
G02 X103.830557 Y186.758698 Z2.000000 I5.366790 J12.522509
G02 X102.210218 Y187.867561 Z2.000000 I8.228778 J13.762695
G02 X101.400609 Y188.854555 Z2.000000 I1.782326 J2.287552
G02 X101.410222 Y189.467555 Z2.000000 I0.592471 J0.297285
G02 X102.052293 Y190.457944 Z2.000000 I5.874184 J-3.104926
G02 X103.382045 Y191.991488 Z2.000000 I15.919022 J-12.460246
G02 X104.629774 Y192.958155 Z2.000000 I3.956129 J-3.817803
G02 X105.500346 Y193.191483 Z2.000000 I0.886077 J-1.565282
G02 X105.781682 Y193.130961 Z2.000000 I0.000000 J-0.684156
G02 X106.041189 Y192.949231 Z2.000000 I-0.350129 J-0.776125
G01 X106.041189 Y192.949231 Z2.000000
G00 Z6.000000

(End cutting path id: path2)


(Start cutting path id: path2)
(Change tool to Default tool)

G00 Z6.000000
G00 X105.680627 Y194.875984

G01 Z2.000000 F4500.0(Penetrate)
G03 X104.896055 Y194.678441 Z2.000000 I0.851824 J-5.039958 F4500.000000
G03 X104.058098 Y194.323873 Z2.000000 I1.959226 J-5.797736
G03 X102.020980 Y192.893135 Z2.000000 I3.914171 J-7.738704
G03 X99.742623 Y190.245016 Z2.000000 I11.546017 J-12.237999
G03 X98.859509 Y188.684313 Z2.000000 I7.737979 J-5.408689
G03 X98.689106 Y187.884463 Z2.000000 I1.791999 J-0.799851
G03 X99.000412 Y187.096820 Z2.000000 I1.152070 J0.000000
G03 X100.238395 Y186.233765 Z2.000000 I2.651556 J2.484024
G02 X100.744108 Y186.005077 Z2.000000 I-3.971415 J-9.455750
G02 X102.767963 Y185.005601 Z2.000000 I-70.764727 J-145.841402
G03 X104.802873 Y184.007822 Z2.000000 I135.242142 J273.244328
G03 X105.134150 Y183.867577 Z2.000000 I1.520833 J3.131035
G03 X106.676877 Y183.560062 Z2.000000 I1.723178 J4.621249
G03 X107.731323 Y183.771803 Z2.000000 I0.084580 J2.310179
G03 X108.961781 Y185.112105 Z2.000000 I-1.023203 J2.174307
G03 X109.545400 Y188.684459 Z2.000000 I-8.872213 J3.283311
G03 X109.430752 Y189.976932 Z2.000000 I-11.401549 J-0.360049
G03 X109.060895 Y191.980221 Z2.000000 I-27.104739 J-3.968420
G03 X108.733827 Y193.223478 Z2.000000 I-17.226185 J-3.867103
G03 X108.520052 Y193.749228 Z2.000000 I-2.939725 J-0.888985
G03 X107.500436 Y194.679517 Z2.000000 I-1.735233 J-0.877945
G03 X105.680627 Y194.875984 Z2.000000 I-1.265820 J-3.198497
G01 X105.680627 Y194.875984 Z2.000000
G00 Z6.000000

(End cutting path id: path2)


(Start cutting path id: path1)
(Change tool to Default tool)

G00 Z6.000000
G00 X107.477803 Y198.121041

G01 Z2.000000 F4500.0(Penetrate)
G02 X110.298276 Y195.874516 Z2.000000 I-1.983675 J-5.384261 F4500.000000
G02 X112.598909 Y190.284453 Z2.000000 I-13.529868 J-8.836771
G02 X112.949892 Y185.795641 Z2.000000 I-17.871324 J-3.655498
G02 X112.210178 Y181.901388 Z2.000000 I-13.988242 J0.639688
G03 X112.053265 Y181.129898 Z2.000000 I3.091350 J-1.030450
G03 X112.125671 Y180.774632 Z2.000000 I0.652527 J-0.052021
G03 X112.216686 Y180.626361 Z2.000000 I1.267797 J0.676158
G03 X112.739753 Y179.901396 Z2.000000 I26.338716 J18.452375
G02 X115.954215 Y174.155901 Z2.000000 I-20.876171 J-15.451654
G02 X117.528466 Y168.008487 Z2.000000 I-22.308358 J-8.988077
G02 X117.737914 Y163.936503 Z2.000000 I-30.047870 J-3.586928
G02 X117.387622 Y159.388803 Z2.000000 I-37.500361 J0.601170
G02 X116.759188 Y156.037584 Z2.000000 I-35.353561 J4.895108
G02 X116.289035 Y154.763470 Z2.000000 I-5.502959 J1.306812
G03 X116.224490 Y154.607094 Z2.000000 I1.697388 J-0.792115
G03 X115.753825 Y153.270518 Z2.000000 I86.566786 J-31.234937
G02 X115.279775 Y151.936724 Z2.000000 I-38.446553 J12.913346
G02 X115.021434 Y151.304329 Z2.000000 I-11.074882 J4.155254
G02 X112.971605 Y148.037944 Z2.000000 I-12.680669 J5.681408
G02 X109.714413 Y145.005763 Z2.000000 I-14.043829 J11.820447
G02 X107.912353 Y143.845032 Z2.000000 I-10.750826 J14.711656
G02 X104.739786 Y142.200141 Z2.000000 I-25.037875 J44.409574
G02 X97.085181 Y139.052690 Z2.000000 I-33.423028 J70.403126
G02 X93.483493 Y138.256495 Z2.000000 I-5.118477 J14.609622
G02 X91.395772 Y138.185020 Z2.000000 I-1.613847 J16.613131
G02 X89.337031 Y138.369170 Z2.000000 I0.482749 J16.997084
G02 X86.238070 Y139.060771 Z2.000000 I3.839323 J24.492235
G02 X82.322975 Y140.414232 Z2.000000 I11.789975 J40.443553
G02 X77.450969 Y142.603731 Z2.000000 I24.682728 J61.438529
G02 X76.852575 Y143.135348 Z2.000000 I0.685453 J1.374142
G02 X76.832334 Y143.387690 Z2.000000 I0.223389 J0.144901
G02 X77.162432 Y143.833937 Z2.000000 I1.155629 J-0.509630
G03 X77.478733 Y144.145159 Z2.000000 I-2.601271 J2.960067
G03 X77.793416 Y144.532526 Z2.000000 I-3.365407 J3.055432
G02 X78.092571 Y144.939911 Z2.000000 I33.603551 J-24.362572
G03 X78.339892 Y145.276184 Z2.000000 I-31.335124 J23.305322
G03 X78.778106 Y145.995858 Z2.000000 I-3.495900 J2.621925
G03 X79.055383 Y146.740967 Z2.000000 I-3.807475 J1.841018
G03 X79.201272 Y147.702739 Z2.000000 I-4.028393 J1.103012
G03 X79.145523 Y149.056451 Z2.000000 I-9.037830 J0.305802
G03 X78.947073 Y150.200213 Z2.000000 I-12.849386 J-1.640347
G03 X78.492005 Y152.019819 Z2.000000 I-32.201453 J-7.086620
G03 X77.340395 Y155.177982 Z2.000000 I-20.625137 J-5.731815
G03 X76.317365 Y156.797265 Z2.000000 I-6.463445 J-2.950666
G02 X76.013762 Y157.167156 Z2.000000 I24.677653 J20.564711
G02 X75.731452 Y157.529656 Z2.000000 I9.832936 J7.948934
G03 X75.438901 Y157.892638 Z2.000000 I-10.620967 J-8.260752
G03 X75.100469 Y158.278949 Z2.000000 I-8.304514 J-6.933874
G02 X74.848265 Y158.932332 Z2.000000 I0.710534 J0.649631
G02 X75.106103 Y159.619788 Z2.000000 I1.056356 J-0.004118
G02 X75.464286 Y160.036377 Z2.000000 I58.966604 J-50.337345
G03 X75.923001 Y160.566263 Z2.000000 I-1547.277708 J1339.917507
G03 X77.433710 Y162.574003 Z2.000000 I-14.324022 J12.350239
G03 X79.725802 Y166.391592 Z2.000000 I-49.230239 J32.154871
G03 X81.253543 Y170.176656 Z2.000000 I-14.853601 J8.196111
G03 X82.232834 Y175.698596 Z2.000000 I-30.978964 J8.341787
G03 X82.352000 Y178.915062 Z2.000000 I-30.361909 J2.735307
G03 X82.159595 Y180.369000 Z2.000000 I-6.346737 J-0.100186
G03 X81.521289 Y182.199431 Z2.000000 I-11.048987 J-2.826485
G03 X80.796221 Y183.422509 Z2.000000 I-5.680061 J-2.540810
G02 X80.507780 Y183.913731 Z2.000000 I1.851056 J1.417215
G02 X80.435659 Y184.261942 Z2.000000 I0.804538 J0.348211
G02 X80.489797 Y184.499355 Z2.000000 I0.547626 J-0.000000
G02 X80.689179 Y184.791517 Z2.000000 I1.063437 J-0.511610
G02 X81.495842 Y185.326960 Z2.000000 I1.521924 J-1.417478
G02 X85.280709 Y186.476018 Z2.000000 I12.081068 J-32.985690
G02 X89.131896 Y187.258423 Z2.000000 I11.802496 J-48.225254
G02 X91.900401 Y187.552070 Z2.000000 I4.042689 J-24.916991
G03 X92.680051 Y187.626733 Z2.000000 I-0.412543 J8.415880
G03 X92.897580 Y187.692914 Z2.000000 I-0.105287 J0.736646
G03 X93.417131 Y188.092143 Z2.000000 I-0.708205 J1.459333
G03 X94.717291 Y189.799948 Z2.000000 I-13.205096 J11.401912
G02 X95.463046 Y190.875001 Z2.000000 I33.340837 J-22.332070
G02 X95.894751 Y191.433744 Z2.000000 I8.183598 J-5.876791
G02 X97.238862 Y192.919282 Z2.000000 I18.556109 J-15.438683
G02 X98.756711 Y194.363310 Z2.000000 I22.401344 J-22.026802
G02 X102.614062 Y197.145621 Z2.000000 I16.448118 J-18.738363
G02 X105.376403 Y198.228083 Z2.000000 I4.824997 J-8.247089
G02 X106.494246 Y198.324996 Z2.000000 I0.905339 J-3.947277
G02 X107.477803 Y198.121041 Z2.000000 I-0.174086 J-3.313054
G01 X107.477803 Y198.121041 Z2.000000
G00 Z6.000000

(End cutting path id: path1)


(Start cutting path id: path1)
(Change tool to Default tool)

G00 Z6.000000
G00 X105.731331 Y200.312581

G01 Z2.000000 F4500.0(Penetrate)
G03 X105.587952 Y200.291261 Z2.000000 I1.791753 J-12.542271 F4500.000000
G02 X105.167953 Y200.228075 Z2.000000 I-8.080406 J52.282935
G03 X103.162973 Y199.688523 Z2.000000 I1.132891 J-8.204876
G03 X100.796140 Y198.442166 Z2.000000 I5.278177 J-12.893754
G03 X99.017145 Y197.120939 Z2.000000 I11.028500 J-16.707848
G03 X96.182074 Y194.599928 Z2.000000 I37.170315 J-44.655535
G02 X94.068758 Y192.666097 Z2.000000 I-55.733047 J58.784127
G02 X93.128565 Y191.901348 Z2.000000 I-9.896769 J11.206912
G02 X88.634137 Y189.467225 Z2.000000 I-10.692826 J14.377142
G02 X79.365240 Y186.825312 Z2.000000 I-22.080259 J59.885972
G01 X78.486371 Y186.645031 Z2.000000
G01 X77.984964 Y186.971790 Z2.000000
G03 X73.187634 Y189.593422 Z2.000000 I-20.293652 J-31.435265
G03 X68.030075 Y191.501349 Z2.000000 I-15.677978 J-34.456130
G03 X66.023705 Y192.025729 Z2.000000 I-10.121623 J-34.626605
G03 X64.492061 Y192.323881 Z2.000000 I-5.068242 J-21.952944
G03 X62.968534 Y192.448237 Z2.000000 I-1.656223 J-10.896202
G03 X61.844185 Y192.352050 Z2.000000 I-0.069870 J-5.802783
G03 X59.448667 Y190.908349 Z2.000000 I0.719525 J-3.903179
G03 X58.125890 Y187.642210 Z2.000000 I4.943242 J-3.902929
G03 X58.062326 Y186.057056 Z2.000000 I11.761494 J-1.265477
G03 X58.238565 Y183.388706 Z2.000000 I34.346488 J0.928519
G03 X59.506771 Y175.975584 Z2.000000 I55.639145 J5.703467
G03 X61.759678 Y168.769047 Z2.000000 I55.415672 J13.368624
G02 X62.509978 Y166.487242 Z2.000000 I-21.765305 J-8.421100
G02 X62.632914 Y165.569060 Z2.000000 I-3.367395 J-0.918182
G02 X62.426510 Y164.606371 Z2.000000 I-2.433589 J0.018298
G02 X61.692073 Y163.439491 Z2.000000 I-4.311190 J1.898907
G02 X61.417085 Y163.127609 Z2.000000 I-6.446952 J5.407121
G02 X60.565317 Y162.211327 Z2.000000 I-286.326745 J265.313190
G03 X59.725371 Y161.278478 Z2.000000 I19.454793 J-18.361827
G03 X59.201942 Y160.628235 Z2.000000 I9.955790 J-8.549962
G03 X57.116023 Y156.768754 Z2.000000 I11.706765 J-8.820535
G03 X55.917448 Y151.501511 Z2.000000 I20.963385 J-7.540264
G03 X55.793877 Y149.110921 Z2.000000 I23.062168 J-2.390591
G03 X55.917448 Y146.459278 Z2.000000 I28.511745 J0.000000
G03 X56.358998 Y143.058604 Z2.000000 I45.603853 J4.192282
G03 X57.201950 Y138.797337 Z2.000000 I74.567546 J12.536743
G02 X57.632745 Y136.807979 Z2.000000 I-73.232075 J-16.899710
G02 X57.765328 Y136.036785 Z2.000000 I-13.018627 J-2.635144
G03 X58.020149 Y135.096364 Z2.000000 I3.809213 J0.527430
G03 X58.345607 Y134.622707 Z2.000000 I1.271727 J0.525183
G03 X58.999556 Y134.145346 Z2.000000 I2.027331 J2.090685
G03 X59.179407 Y134.172004 Z2.000000 I0.071957 J0.134551
G01 X59.186207 Y134.187902 Z2.000000
G03 X58.970957 Y134.859325 Z2.000000 I-29.262862 J-9.011114
G02 X56.920255 Y144.089773 Z2.000000 I42.024176 J14.179411
G02 X57.027303 Y152.149396 Z2.000000 I32.098503 J3.604192
G02 X57.886757 Y155.759179 Z2.000000 I19.505356 J-2.736832
G02 X59.077999 Y158.155006 Z2.000000 I9.526082 J-3.242449
G02 X59.797450 Y159.089201 Z2.000000 I7.583170 J-5.095890
G02 X60.480810 Y159.749365 Z2.000000 I4.366588 J-3.836244
G02 X64.208473 Y161.122959 Z2.000000 I3.862531 J-4.737280
G02 X69.449788 Y159.946548 Z2.000000 I0.246438 J-11.166164
G02 X74.814356 Y155.829229 Z2.000000 I-7.998218 J-15.974583
G02 X77.139897 Y151.276160 Z2.000000 I-7.622554 J-6.763757
G02 X77.302354 Y149.907610 Z2.000000 I-6.827781 J-1.504426
G02 X77.196235 Y148.453636 Z2.000000 I-7.907702 J-0.153710
G02 X75.521759 Y144.954600 Z2.000000 I-6.909368 J1.156320
G02 X72.334283 Y142.983236 Z2.000000 I-4.896374 J4.354315
G02 X71.004967 Y142.794385 Z2.000000 I-1.415334 J5.189556
G02 X69.404717 Y142.932532 Z2.000000 I-0.125994 J7.877990
G02 X65.916988 Y144.544910 Z2.000000 I1.505314 J7.834476
G02 X63.387840 Y147.760681 Z2.000000 I5.661551 J7.055162
G03 X63.126274 Y148.318625 Z2.000000 I-23.865286 J-10.847857
G02 X62.937138 Y148.724058 Z2.000000 I14.766325 J7.135391
G03 X62.181976 Y149.530571 Z2.000000 I-1.637182 J-0.776146
G03 X61.675171 Y149.428280 Z2.000000 I-0.193608 J-0.347401
G03 X61.521329 Y148.775288 Z2.000000 I0.603688 J-0.486845
G03 X62.272352 Y146.712798 Z2.000000 I8.065756 J1.769037
G03 X63.016703 Y145.531792 Z2.000000 I7.398548 J3.837997
G03 X64.097697 Y144.284639 Z2.000000 I9.706526 J7.321256
G03 X66.115878 Y142.745671 Z2.000000 I6.627947 J6.599004
G03 X68.351201 Y141.879015 Z2.000000 I4.074407 J7.192864
G03 X69.317376 Y141.728658 Z2.000000 I1.504446 J6.487924
G03 X71.984989 Y141.586059 Z2.000000 I3.925493 J48.411593
G02 X74.421086 Y141.422836 Z2.000000 I-0.812499 J-30.387447
G02 X75.382158 Y141.219863 Z2.000000 I-0.520228 J-4.840084
G02 X76.298237 Y140.851728 Z2.000000 I-2.136394 J-6.640145
G02 X77.218770 Y140.324092 Z2.000000 I-3.440295 J-7.068878
G02 X78.100116 Y139.656820 Z2.000000 I-5.275829 J-7.884105
G02 X79.900450 Y138.036777 Z2.000000 I-29.769010 J-34.892298
G03 X81.697900 Y136.415761 Z2.000000 I33.328237 J35.148687
G03 X82.542692 Y135.771998 Z2.000000 I5.996333 J6.992639
G03 X83.513300 Y135.210734 Z2.000000 I4.752183 J7.098198
G03 X84.497614 Y134.808621 Z2.000000 I3.328204 J6.741172
G03 X85.133464 Y134.632345 Z2.000000 I1.844200 J5.417336
G03 X87.928586 Y134.064962 Z2.000000 I24.119887 J111.654191
G02 X90.843259 Y133.032987 Z2.000000 I-1.966792 J-10.186975
G02 X92.294765 Y131.732577 Z2.000000 I-1.923274 J-3.607026
G01 X92.553919 Y131.349480 Z2.000000
G01 X92.413075 Y130.848074 Z2.000000
G03 X91.899983 Y128.757866 Z2.000000 I34.058923 J-9.468663
G03 X91.922936 Y128.577661 Z2.000000 I0.268679 J-0.057342
G03 X92.172552 Y128.353434 Z2.000000 I0.442170 J0.241184
G03 X92.773637 Y128.234000 Z2.000000 I0.601085 J1.452847
G03 X93.006942 Y128.381353 Z2.000000 I0.000000 J0.258374
G03 X93.506028 Y129.772022 Z2.000000 I-6.709563 J3.192831
G02 X94.197426 Y132.048690 Z2.000000 I21.446026 J-5.269595
G02 X94.666587 Y132.972009 Z2.000000 I4.018932 J-1.461261
G02 X95.594451 Y134.224078 Z2.000000 I13.789241 J-9.248881
G02 X96.627142 Y135.366365 Z2.000000 I11.850918 J-9.675939
G02 X100.414683 Y138.135590 Z2.000000 I10.961136 J-11.017060
G02 X104.305984 Y139.360715 Z2.000000 I5.414722 J-10.406063
G02 X109.099940 Y138.556376 Z2.000000 I1.080222 J-8.250192
G02 X112.655246 Y135.191718 Z2.000000 I-3.754877 J-7.528343
G02 X113.480222 Y133.147418 Z2.000000 I-7.185566 J-4.088339
G02 X113.720031 Y131.005820 Z2.000000 I-7.571820 J-1.932091
G01 X113.703129 Y130.262161 Z2.000000
G01 X113.872143 Y130.194555 Z2.000000
G03 X114.702043 Y130.234533 Z2.000000 I0.372811 J0.894747
G03 X115.342559 Y130.977651 Z2.000000 I-0.642396 J1.201301
G03 X115.439356 Y131.564614 Z2.000000 I-1.663306 J0.575760
G03 X115.331292 Y132.769193 Z2.000000 I-7.284547 J-0.046368
G03 X114.550029 Y135.210161 Z2.000000 I-9.136426 J-1.578721
G03 X112.903133 Y137.811426 Z2.000000 I-11.985765 J-5.766379
G03 X112.175772 Y138.617506 Z2.000000 I-8.214862 J-6.681421
G03 X111.100323 Y139.614236 Z2.000000 I-13.656532 J-13.656532
G01 X110.801733 Y139.867756 Z2.000000
G01 X112.131305 Y142.205774 Z2.000000
G02 X116.510871 Y149.686433 Z2.000000 I285.678060 J-162.228424
G02 X116.998891 Y150.278981 Z2.000000 I2.257206 J-1.361786
G02 X117.900279 Y150.728536 Z2.000000 I1.254970 J-1.387850
G02 X118.897475 Y150.645177 Z2.000000 I0.350030 J-1.818942
G02 X119.592169 Y150.203308 Z2.000000 I-0.632056 J-1.760728
G02 X120.198878 Y149.355041 Z2.000000 I-2.299347 J-2.285671
G02 X120.469940 Y147.911307 Z2.000000 I-2.494711 J-1.215697
G02 X119.843950 Y145.033932 Z2.000000 I-11.152577 J0.919528
G03 X119.230948 Y142.750544 Z2.000000 I13.836299 J-4.938494
G03 X119.100291 Y140.977610 Z2.000000 I8.098282 J-1.488086
G03 X119.379171 Y138.959182 Z2.000000 I9.608483 J0.299097
G03 X120.097470 Y136.971993 Z2.000000 I9.936530 J2.468289
G03 X121.640774 Y134.618234 Z2.000000 I9.879597 J4.794983
G03 X123.635484 Y132.848066 Z2.000000 I7.459808 J6.397118
G03 X124.655248 Y132.260317 Z2.000000 I4.656282 J6.900273
G03 X125.770686 Y131.805817 Z2.000000 I4.039634 J8.318087
G03 X127.052134 Y131.682460 Z2.000000 I0.903228 J2.665262
G03 X127.674904 Y132.059337 Z2.000000 I-0.122888 J0.906053
G01 X127.843917 Y132.301589 Z2.000000
G01 X127.832650 Y133.631161 Z2.000000
G03 X127.163132 Y139.181965 Z2.000000 I-24.581950 J-0.149208
G03 X125.173506 Y144.769144 Z2.000000 I-26.736627 J-6.373216
G03 X124.327479 Y146.374444 Z2.000000 I-23.602357 J-11.413346
G03 X123.336893 Y147.980399 Z2.000000 I-24.780815 J-14.176831
G03 X122.273087 Y149.455191 Z2.000000 I-20.510110 J-13.673406
G03 X120.767890 Y151.276160 Z2.000000 I-32.186336 J-25.072374
G02 X119.409888 Y152.974365 Z2.000000 I18.618051 J16.280358
G02 X118.852404 Y153.895868 Z2.000000 I5.034660 J3.675210
G02 X118.481209 Y154.954989 Z2.000000 I4.410421 J2.140351
G02 X118.350998 Y156.121211 Z2.000000 I5.157483 J1.166222
G02 X118.440137 Y157.190068 Z2.000000 I6.452844 J-0.000000
G02 X118.880573 Y159.293029 Z2.000000 I26.464352 J-4.444992
G03 X119.517882 Y162.332598 Z2.000000 I-34.598461 J8.840884
G03 X119.753809 Y164.583149 Z2.000000 I-19.020292 J3.131554
G03 X119.528766 Y168.579722 Z2.000000 I-20.001961 J0.878330
G03 X118.407336 Y173.090156 Z2.000000 I-26.326381 J-4.150904
G03 X118.052163 Y174.075088 Z2.000000 I-27.279241 J-9.280566
G03 X117.218608 Y176.216904 Z2.000000 I-155.983072 J-59.472585
G02 X115.381720 Y182.049528 Z2.000000 I38.274366 J15.259441
G02 X114.660872 Y187.107001 Z2.000000 I27.897410 J6.556359
G03 X114.419265 Y190.603525 Z2.000000 I-96.243930 J-4.893759
G03 X114.232705 Y192.064727 Z2.000000 I-18.433998 J-1.611070
G03 X113.072907 Y195.818299 Z2.000000 I-14.554806 J-2.441252
G03 X111.370745 Y198.267519 Z2.000000 I-7.810865 J-3.612310
G03 X109.720093 Y199.512333 Z2.000000 I-5.265918 J-5.265918
G03 X107.860900 Y200.211173 Z2.000000 I-3.283909 J-5.913991
G03 X106.636996 Y200.369407 Z2.000000 I-1.568536 J-7.319834
G03 X105.731331 Y200.312581 Z2.000000 I-0.192513 J-4.177266
G01 X105.731331 Y200.312581 Z2.000000
G00 Z6.000000

(End cutting path id: path1)


(Start cutting path id: path1)
(Change tool to Default tool)

G00 Z6.000000
G00 X64.559667 Y186.402778

G01 Z2.000000 F4500.0(Penetrate)
G02 X65.608088 Y186.128024 Z2.000000 I-1.067594 J-6.211455 F4500.000000
G02 X66.801911 Y185.602782 Z2.000000 I-3.039860 J-8.528643
G02 X69.642796 Y183.356104 Z2.000000 I-4.590709 J-8.724334
G02 X70.689219 Y181.135194 Z2.000000 I-3.388470 J-2.953518
G02 X70.587857 Y179.634816 Z2.000000 I-3.169499 J-0.539489
G02 X69.652604 Y177.811264 Z2.000000 I-5.766949 J1.806112
G02 X68.021670 Y176.051511 Z2.000000 I-9.251577 J6.938683
G02 X66.463884 Y175.011275 Z2.000000 I-4.736108 J5.405939
G02 X65.325978 Y175.049623 Z2.000000 I-0.533038 J1.084889
G02 X63.804740 Y176.549297 Z2.000000 I2.125386 J3.677340
G02 X62.684189 Y178.688479 Z2.000000 I18.906441 J11.266695
G02 X61.990663 Y180.532380 Z2.000000 I13.213838 J6.022346
G02 X61.477508 Y182.480142 Z2.000000 I26.043592 J7.902883
G02 X61.224469 Y183.918282 Z2.000000 I15.350991 J3.442327
G02 X61.599083 Y185.601101 Z2.000000 I2.544430 J0.316689
G02 X62.801927 Y186.425314 Z2.000000 I1.554405 J-0.978665
G02 X63.574416 Y186.494486 Z2.000000 I0.721692 J-3.711558
G02 X64.559667 Y186.402778 Z2.000000 I-0.083824 J-6.238886
G01 X64.559667 Y186.402778 Z2.000000
G00 Z6.000000

(End cutting path id: path1)


(Footer)
M5
G00 X0.0000 Y0.0000
M2
(Using default footer. To add your own footer create file "footer" in the output dir.)
(end)
%